X:1
T:Green Mountain Petronella 
C:From The Fifer's Delight
R:reel
M:4/4
K:G
|: "G"D2 G2 GFG2  | D2 B2 BGAB | "Am"cBcB ABcd | "D7"e2 d2 d^c d2 |
"G"D2 G2 GFG2  | D2 B2 BGAB | "Am"cBcA "D7"DEFG | A2 GF "G"G4 :|
|:  "G"g2 g2 "D7"f2 f2 | "C"ege^c "G"d4 | "C"edef gfge | "D7"B2AF DGBd|
"Em"g2 g2 "D7"f2 f2 | "A7"ege^c "D7"d4 | "C"edef gfge | "D7"B2 AF "G"G4 :|
